src/module-aos_contracts-signature.svg

<?xml version="1.0" encoding="UTF-8"?>
<svg xmlns="http://www.w3.org/2000/svg" xmlns:xlink="http://www.w3.org/1999/xlink" width="1024pt" height="1024pt" viewBox="0 0 1024 1024" version="1.1">
<g id="surface1">
<path style=" stroke:none;fill-rule:evenodd;fill:rgb(0%,0%,0%);fill-opacity:1;" d="M 1020.769531 856.089844 L 3.230469 856.089844 L 3.230469 914.410156 L 1020.769531 914.410156 Z M 1020.769531 856.089844 "/>
<path style=" stroke:none;fill-rule:evenodd;fill:rgb(0%,0%,0%);fill-opacity:1;" d="M 266.773438 188.515625 C 257.613281 188.515625 247.4375 191.640625 239.296875 197.890625 C 226.070312 207.261719 213.859375 222.886719 201.648438 245.796875 C 158.910156 328.074219 159.929688 434.300781 203.683594 516.574219 C 206.738281 522.824219 210.808594 529.074219 215.894531 535.324219 C 225.054688 520.742188 232.175781 507.203125 238.28125 496.789062 C 274.914062 430.136719 298.316406 356.191406 304.421875 281.207031 C 306.457031 262.460938 307.472656 240.589844 301.367188 221.84375 C 297.296875 207.261719 288.140625 195.808594 277.964844 190.597656 C 274.914062 189.558594 270.84375 188.515625 266.773438 188.515625 Z M 112.105469 702.996094 C 86.667969 702.996094 63.261719 693.625 44.949219 675.917969 C 29.683594 661.339844 20.527344 641.550781 15.441406 614.472656 L 8.316406 574.898438 L 84.632812 561.359375 L 91.753906 600.933594 C 93.789062 611.347656 96.84375 616.554688 97.859375 617.597656 C 101.929688 620.722656 107.019531 622.804688 113.121094 622.804688 C 131.4375 621.765625 148.738281 611.347656 165.019531 597.808594 C 152.808594 584.269531 142.632812 569.691406 134.492188 554.066406 C 77.507812 447.839844 76.492188 315.574219 132.457031 208.304688 C 150.773438 173.9375 171.121094 148.941406 195.542969 132.277344 C 230.140625 108.324219 272.878906 103.117188 307.472656 117.699219 C 339.019531 131.238281 364.457031 160.398438 375.648438 198.933594 C 384.808594 230.175781 383.789062 262.460938 381.757812 288.496094 C 374.632812 373.898438 348.175781 460.335938 305.4375 536.363281 C 298.316406 549.902344 288.140625 566.566406 277.964844 584.269531 C 299.335938 592.601562 321.71875 593.644531 343.089844 583.230469 C 361.402344 574.898438 374.632812 559.277344 391.929688 536.363281 C 410.246094 513.453125 420.421875 492.621094 425.507812 469.710938 C 429.578125 447.839844 449.929688 434.300781 471.300781 438.464844 C 486.5625 441.589844 498.773438 454.085938 501.828125 469.710938 C 507.929688 485.332031 540.492188 547.820312 548.632812 559.277344 L 551.683594 564.484375 C 570 590.519531 580.175781 603.015625 591.367188 599.894531 C 609.683594 595.726562 625.964844 574.898438 642.246094 550.945312 C 659.542969 525.949219 672.773438 496.789062 680.910156 467.628906 C 684.980469 452.003906 698.210938 439.507812 714.492188 438.464844 C 730.773438 436.382812 746.035156 445.757812 753.15625 460.335938 L 774.527344 504.078125 C 793.859375 543.65625 811.160156 574.898438 836.597656 590.519531 C 852.878906 600.933594 874.246094 604.058594 892.5625 598.851562 C 904.773438 595.726562 908.84375 589.476562 924.105469 563.441406 L 943.4375 529.074219 L 1010.597656 569.691406 L 991.265625 604.058594 C 974.980469 632.175781 956.667969 664.460938 912.910156 675.917969 C 874.246094 686.332031 832.527344 680.085938 797.929688 659.253906 C 762.316406 638.425781 739.929688 604.058594 722.632812 572.816406 C 717.546875 582.1875 712.457031 590.519531 706.351562 598.851562 C 687.019531 625.929688 657.507812 667.585938 608.667969 679.042969 C 546.597656 693.625 510.984375 642.59375 489.613281 613.433594 L 484.527344 605.097656 C 484.527344 605.097656 474.351562 589.476562 463.160156 569.691406 C 459.089844 574.898438 455.015625 580.105469 450.949219 586.351562 C 432.632812 609.265625 410.246094 637.386719 374.632812 655.089844 C 325.789062 678.003906 272.878906 671.753906 227.085938 647.800781 C 197.582031 678.003906 161.964844 700.914062 117.191406 702.996094 Z M 112.105469 702.996094 "/>
</g>
</svg>

<?xml version="1.0" encoding="UTF-8" standalone="no"?>
<svg
   xmlns:dc="http://purl.org/dc/elements/1.1/"
   xmlns:cc="http://creativecommons.org/ns#"
   xmlns:rdf="http://www.w3.org/1999/02/22-rdf-syntax-ns#"
   xmlns:svg="http://www.w3.org/2000/svg"
   xmlns="http://www.w3.org/2000/svg"
   xmlns:sodipodi="http://sodipodi.sourceforge.net/DTD/sodipodi-0.dtd"
   xmlns:inkscape="http://www.inkscape.org/namespaces/inkscape"
   width="1024"
   height="1024"
   viewBox="0 0 1024 1024"
   version="1.1"
   id="svg2"
   inkscape:version="0.91 r13725"
   sodipodi:docname="module-contracts-sign.svg">
  <metadata
     id="metadata18">
    <rdf:RDF>
      <cc:Work
         rdf:about="">
        <dc:format>image/svg+xml</dc:format>
        <dc:type
           rdf:resource="http://purl.org/dc/dcmitype/StillImage" />
        <dc:title>acc_contracts</dc:title>
      </cc:Work>
    </rdf:RDF>
  </metadata>
  <sodipodi:namedview
     pagecolor="#ffffff"
     bordercolor="#666666"
     borderopacity="1"
     objecttolerance="10"
     gridtolerance="10"
     guidetolerance="10"
     inkscape:pageopacity="0"
     inkscape:pageshadow="2"
     inkscape:window-width="1920"
     inkscape:window-height="1015"
     id="namedview16"
     showgrid="false"
     inkscape:zoom="1.022584"
     inkscape:cx="477.28403"
     inkscape:cy="512"
     inkscape:window-x="0"
     inkscape:window-y="0"
     inkscape:window-maximized="1"
     inkscape:current-layer="svg2" />
  <!-- Generator: Sketch 3.8.3 (29802) - http://www.bohemiancoding.com/sketch -->
  <title
     id="title4">acc_contracts</title>
  <desc
     id="desc6">Created with Sketch.</desc>
  <defs
     id="defs8" />
  <path
     transform="matrix(42.448939,0,0,42.448939,3.228967,109.58787)"
     style="fill:#000000;fill-rule:evenodd;stroke:none;stroke-width:1;fill-opacity:1"
     d="m 23.970966,17.585922 -23.970966,0 0,1.373894 23.970966,0 z"
     id="Fill-1" />
  <path
     style="fill:#000000;fill-rule:evenodd;stroke:none;stroke-width:1;fill-opacity:1"
     inkscape:connector-curvature="0"
     id="Fill-2"
     d="m 266.77312,188.51722 c -9.15872,0 -19.33449,3.12467 -27.47443,9.37219 -13.22869,9.37395 -25.4386,24.99718 -37.65022,47.90718 -42.73725,82.27654 -41.71848,188.50404 2.03584,270.77883 3.05291,6.2493 7.12288,12.49859 12.20991,18.74789 9.15872,-14.58052 16.28159,-28.12008 22.3874,-38.53499 36.63144,-66.6533 60.03419,-140.59687 66.14,-215.5814 2.03585,-18.74613 3.05291,-40.61691 -3.0529,-59.36304 -4.06997,-14.58052 -13.22697,-26.0364 -23.40276,-31.24472 -3.0529,-1.04097 -7.12287,-2.08194 -11.19284,-2.08194 l 0,0 z M 112.10571,702.99581 c -25.438595,0 -48.843059,-9.37222 -67.157071,-27.07737 C 29.684114,661.33965 20.5254,641.5508 15.440074,614.47347 l -7.1228754,-39.57595 76.3140744,-13.53956 7.122876,39.57595 c 2.035851,10.41489 5.088745,15.62147 6.105809,16.66244 4.069962,3.12637 9.158712,5.20832 15.262822,5.20832 18.31572,-1.04098 35.61437,-11.45587 51.89596,-24.99542 -12.21162,-13.53782 -22.3874,-28.11831 -30.52734,-43.74155 -56.983,-106.22751 -57.998357,-238.49316 -2.03413,-345.76163 18.31572,-34.36937 38.66557,-59.36479 63.0871,-76.02724 34.5956,-23.95272 77.33285,-29.16104 111.93016,-14.58052 31.5444,13.53955 56.98129,42.70059 68.17414,81.23382 9.15871,31.24472 8.14164,63.52866 6.10751,89.56505 -7.12287,85.39944 -33.58024,171.83985 -76.31749,247.8671 -7.12288,13.53956 -17.29865,30.202 -27.47273,47.90715 21.36863,8.33124 43.75432,9.37222 65.12294,-1.04271 18.31401,-8.3312 31.54441,-23.95271 48.84136,-46.86444 18.31743,-22.91175 28.49149,-43.74157 33.57853,-66.65331 4.06998,-21.87078 24.42153,-35.41034 45.79015,-31.24472 15.26282,3.12462 27.47444,15.62148 30.52733,31.24472 6.10411,15.62148 38.66559,78.10918 46.80551,89.56504 l 3.05293,5.20658 c 18.3157,26.03639 28.49147,38.53497 39.68432,35.41035 18.31405,-4.16552 34.59564,-24.99542 50.87722,-48.94813 17.29693,-24.99544 30.52733,-54.15649 38.66555,-83.31752 4.07001,-15.62149 17.29867,-28.11833 33.58026,-29.16104 16.27988,-2.08195 31.5427,7.29026 38.66554,21.87078 l 21.36863,43.74156 c 19.33282,39.57596 36.63318,70.81893 62.07003,86.44039 16.28163,10.41493 37.65025,13.53956 55.96595,8.33298 12.20993,-3.12466 16.27989,-9.37395 31.5444,-35.41031 l 19.33108,-34.36764 67.15881,40.61693 -19.33282,34.3676 c -16.28159,28.11835 -34.59559,60.40403 -78.35162,71.8599 -38.66555,10.41489 -80.38402,4.16721 -114.98305,-16.66423 -35.6144,-20.82803 -57.99837,-55.19567 -75.29703,-86.43864 -5.08704,9.37217 -10.17578,17.70341 -16.28159,26.03639 -19.33277,27.07738 -48.84132,68.73524 -97.68269,80.1911 -62.07173,14.58053 -97.68439,-36.44954 -119.05302,-65.61056 l -5.08704,-8.33299 c 0,0 -10.17577,-15.6215 -21.36862,-35.40857 -4.07001,5.20658 -8.14167,10.41489 -12.21163,16.66244 -18.31574,22.91173 -40.6997,51.03182 -76.31408,68.73698 -48.84477,22.91177 -101.75609,16.66248 -147.54625,-7.29027 -29.50685,30.20204 -65.12122,53.11377 -109.89431,55.19572 l -5.08704,0 z" />
</svg>
